logo/strider.svg

<?xml version="1.0" encoding="UTF-8" standalone="no"?>
<svg width="256px" height="256px" viewBox="0 0 256 256" version="1.1" xmlns="http://www.w3.org/2000/svg" xmlns:xlink="http://www.w3.org/1999/xlink" preserveAspectRatio="xMidYMid">
	<g>
		<path d="M20.64,58.4320102 L121.856,113.66401 L124.928,55.2960102 L93.632,4.80001024 C63.236649,13.2694016 37.41184,32.5974426 20.64,58.4320102 Z M165.504,5.60001024 L132.096,55.2960102 L133.12,117.76001 L236.48,60.2880102 C220.310702,34.4346214 195.260396,14.7124326 165.504,5.60001024 Z" fill="#006EAF"></path>
		<path d="M60.032,236.32001 L122.88,134.14401 L20.608,58.4640102 C7.61534464,78.4923136 0,102.348483 0,128.00001 C0,173.690317 24.0119501,213.67124 60.032,236.32001 Z M236.48,60.2880102 L133.12,134.14401 L197.024,235.64801 C232.454922,212.883548 256,173.242132 256,128.00001 C256,103.114332 248.799375,79.9401882 236.512,60.2880102 C236.508928,60.2828902 236.482918,60.2931302 236.480051,60.2880102 L236.48,60.2880102 Z" fill="#00A7E1"></path>
		<path d="M129.024,255.93601 L122.88,155.64801 L60.064,236.32001 C79.7696102,248.704686 103.007642,256.00001 128,256.00001 C128.345887,256.00001 128.678769,255.938775 129.024,255.93601 Z M197.024,235.64801 L132.096,153.60001 L129.024,255.93601 C154.081556,255.737231 177.363702,248.279798 197.024,235.64801 Z" fill="#5BC9EC"></path>
		<path d="M165.504,5.60001024 L129.024,49.1520102 L93.664,4.76801024 C93.6515072,4.77108224 93.644544,4.79657984 93.6320512,4.79995904 L124.928,55.2960102 L121.856,113.66401 L20.64,58.4320102 C20.631808,58.4442982 20.615936,58.4517734 20.6080512,58.463959 L122.88,134.14401 L60.032,236.32001 C60.040192,236.32513 60.0562688,236.31489 60.0639488,236.32001 L122.88,155.64801 L129.024,255.93601 L132.096,153.60001 L197.024,235.64801 L133.12,134.14401 L236.48,60.2880102 L133.12,117.76001 L132.096,55.2960102 L165.504,5.60001024 L165.504,5.60001024 Z" fill="#FFFFFF"></path>
		<path d="M128,1.02400001e-05 C116.084224,1.02400001e-05 104.60885,1.72193792 93.664,4.76801024 L129.024,49.1520102 L165.504,5.60001024 C153.634857,1.96527104 141.059697,1.02400001e-05 128,1.02400001e-05 L128,1.02400001e-05 Z" fill="#013A78"></path>
	</g>
</svg>

<svg viewBox="0 0 256 256" xmlns="http://www.w3.org/2000/svg"><path fill="#006EAF" d="M20.64 58.43l101.216 55.23 3.07-58.37 -31.3-50.5c-30.4 8.46-56.23 27.79-73 53.63ZM165.5 5.59l-33.41 49.69 1.02 62.46 103.36-57.48C220.3 34.4 195.25 14.68 165.49 5.57Z"/><path fill="#00A7E1" d="M60.03 236.32l62.84-102.18L20.59 58.46C7.59 78.48-.02 102.34-.02 127.99c0 45.69 24.01 85.67 60.03 108.32ZM236.478 60.28l-103.36 73.85 63.9 101.5c35.43-22.77 58.976-62.41 58.976-107.648 0-24.89-7.21-48.06-19.488-67.72 -.01-.01-.03 0-.04-.001h-.01Z"/><path fill="#5BC9EC" d="M129.024 255.93l-6.15-100.29 -62.82 80.67c19.7 12.38 42.94 19.68 67.93 19.68 .34 0 .67-.07 1.02-.07Zm68-20.29l-64.928-82.048 -3.08 102.33c25.05-.2 48.33-7.66 68-20.29Z"/><path fill="#FFF" d="M165.5 5.6l-36.48 43.55L93.66 4.76c-.02 0-.02.02-.04.03l31.29 50.49 -3.08 58.36L20.61 58.4c-.01.01-.03.01-.04.03l102.27 75.68 -62.85 102.17s.02-.01.03 0l62.81-80.68 6.14 100.28 3.07-102.34 64.928 82.048 -63.91-101.51 103.36-73.86 -103.36 57.47 -1.03-62.47 33.4-49.7V5.51Z"/><path fill="#013A78" d="M128 0c-11.92 0-23.4 1.72-34.34 4.76l35.36 44.38L165.5 5.58c-11.87-3.64-24.45-5.6-37.51-5.6v0Z"/></svg>
